static/fa/svgs/regular/window-restore.svg

<svg xmlns="http://www.w3.org/2000/svg" viewBox="0 0 512 512"><!--! Font Awesome Free 6.1.1 by @fontawesome - https://fontawesome.com License - https://fontawesome.com/license/free (Icons: CC BY 4.0, Fonts: SIL OFL 1.1, Code: MIT License) Copyright 2022 Fonticons, Inc.--><path d="M432 48H208c-17.7 0-32 14.33-32 32v16h-48V80c0-44.18 35.8-80 80-80h224c44.2 0 80 35.82 80 80v224c0 44.2-35.8 80-80 80h-16v-48h16c17.7 0 32-14.3 32-32V80c0-17.67-14.3-32-32-32zm-112 80c35.3 0 64 28.7 64 64v256c0 35.3-28.7 64-64 64H64c-35.35 0-64-28.7-64-64V192c0-35.3 28.65-64 64-64h256zM64 464h256c8.8 0 16-7.2 16-16V256H48v192c0 8.8 7.16 16 16 16z"/></svg>

<svg xmlns="http://www.w3.org/2000/svg" viewBox="0 0 512 512"><!--! Font Awesome Free 6.1.1 by @fontawesome - https://fontawesome.com License - https://fontawesome.com/license/free (Icons: CC BY 4.0, Fonts: SIL OFL 1.1, Code: MIT License) Copyright 2022 Fonticons, Inc. --><path d="M432 48H208C190.3 48 176 62.33 176 80V96H128V80C128 35.82 163.8 0 208 0H432C476.2 0 512 35.82 512 80V304C512 348.2 476.2 384 432 384H416V336H432C449.7 336 464 321.7 464 304V80C464 62.33 449.7 48 432 48zM320 128C355.3 128 384 156.7 384 192V448C384 483.3 355.3 512 320 512H64C28.65 512 0 483.3 0 448V192C0 156.7 28.65 128 64 128H320zM64 464H320C328.8 464 336 456.8 336 448V256H48V448C48 456.8 55.16 464 64 464z"/></svg>
